X:1
T:The Two Commandments
T:The Two Commandments
T:William Howard Doane
T:Frances Jane (Fanny) Crosby, 1873
T:Public Domain Courtesy of the Cyber Hymnal™
T:Public Domain Courtesy of the Cyber Hymnal™
C:William Howard Doane
Z:Public Domain
Z:Courtesy of the Cyber Hymnal™
%%score ( 1 2 ) ( 3 4 )
L:1/8
Q:1/4=90
M:4/4
K:Ab
V:1 treble 
V:2 treble 
V:3 bass 
V:4 bass 
V:1
 [CA][DB] | [Ec][Ec][Ec][DB] [Fd][Ec][DB][CA] | [DB][DA][EG][DF] [CE]2 [CE][CE] | %3
w: 1.~First a-|mong the Christ- ian grac- es, Love the|crown- ing vir- tue stands; Love is|
w: 2.~Are we|lov- ing, are we striv- ing, To o-|bey our Mas- ter’s will? We must|
w: 3.~On the|cross, O bless- èd Sav- ior, On- ly|love in- scribed we see; By our|
 [DF][DF][DF][FA] [EG][EG][EG][EB] | [EA][EA][EB][Ec] !fermata![EB]2 [CA][DB] | %5
w: taught our high- est du- ty, In the|Sav- ior’s two com- mands; Love with|
w: pray for grace to help us His com-|mand- ments to ful- fill; We must|
w: pa- tient self * de- ni- al, May|we prove our love to Thee; Love|
 [Ec][Ec][Ec][DB] [Fd][Ec][DB][CA] | [DB][DA][EG][DF] [CE]2 [CE][CE] | %7
w: all thy powers u- nit- ed, Love the|Lord thy God a- bove, And re-|
w: keep this thought be- fore us, In the|work we try to do, If we|
w: Thy first and great com- mand- ment, Love|the Lord thy God a- bove, Thou|
 [DF][Fd][Fd][DF] [CE][Ec][Ec][EA] | [Ec][EB][EA][EG] [EA]4 || %9
w: mem- ber yet an- oth- er, As thy-|self, thy neigh- bor love.|
w: love our dear Re- deem- er, We must|love our neigh- bor, too.|
w: hast taught us yet an- oth- er, As|thy- self, thy neigh- bor|
"^Refrain" [EB]3 [Ec] [Ed][Ed] [Ed]2 | [Ec]3 [Ed] [Ae][Ae] [Ae]2 | %11
w: ||
w: Love that chang- es not,|Love that chang- es not,|
w: love. * * * *||
 [Ae][Ac][Ac][EA] [FA][DF] [DF]2 | [=DB][Dc][DA][DF] E2 [CA][_DB] | %13
w: ||
w: Love that warms the heart to all,|Ev- ery- where we go; Love with|
w: ||
 [Ec][Ec][Ec][DB] [Fd][Ec][DB][CA] | [DB][DA][EG][DF] [CE]2 [CE][CE] | %15
w: ||
w: all thy powers u- nit- ed, Love the|Lord thy God a- bove, And re-|
w: ||
 [DF][Fd][Fd][DF] [CE][Ec][Ec][EA] | [Ec][EB][EA][EG] [EA]4 |] %17
w: ||
w: mem- ber yet an- oth- er, As thy-|self, thy neigh- bor love.|
w: ||
V:2
 x2 | x8 | x8 | x8 | x8 | x8 | x8 | x8 | x8 || x8 | x8 | x8 | x4 E2 x2 | x8 | x8 | x8 | x8 |] %17
V:3
 [A,,A,][A,,A,] | [A,,A,][A,,A,][A,,A,][A,,A,] [A,,A,][A,,A,][A,,A,][A,,A,] | %2
 [D,F,][D,F,][D,A,][D,A,] [A,,A,]2 [A,,A,][A,,A,] | [D,A,][D,A,][D,A,][D,D] [E,D][E,D][E,D][E,D] | %4
 [E,C][C,A,][B,,G,][A,,A,] !fermata![E,G,]2 [A,,A,][A,,A,] | %5
 [A,,A,][A,,A,][A,,A,][A,,A,] [A,,A,][A,,A,][A,,A,][A,,A,] | %6
 [D,F,][D,F,][E,A,][E,A,] [A,,A,]2 [A,,A,][A,,A,] | %7
 [D,A,][D,A,][D,A,][D,A,] [E,A,][E,A,][E,A,][E,C] | [E,A,][E,D] [E,C] (B,/D/) [A,,C]4 || %9
 [E,G,]3 [E,A,] [E,B,][E,B,] [E,B,]2 | A,3 [A,B,] [A,C][A,C] [A,C]2 | %11
 [A,C][A,E][A,E][C,A,] [D,A,][D,A,] [D,A,]2 | [B,,A,][B,,F,][B,,B,][B,,A,] [E,G,]2 [A,,A,][A,,A,] | %13
 [A,,A,][A,,A,][A,,A,][A,,A,] [A,,A,][A,,A,][A,,A,][A,,A,] | %14
 [D,F,][D,F,][E,A,][E,A,] [A,,A,]2 [A,,A,][A,,A,] | %15
 [D,A,][D,A,][D,A,][D,A,] [E,A,][E,A,][E,A,][E,C] | [E,A,][E,D] [E,C] (B,/D/) [A,,C]4 |] %17
V:4
 x2 | x8 | x8 | x8 | x8 | x8 | x8 | x8 | x3 E, x4 || x8 | A,3 x5 | x8 | x8 | x8 | x8 | x8 | %16
 x3 E, x4 |] %17

